X:114
T:What a Beau your Granny was. RHu.114
S:R.Hughes MS,1823,Whitchurch,Shrops.
A:Whitchurch , Shropshire
Z:Neil Brookes 2007
M:4/4
L:1/8
Q:1/2=100
R:Reel
K:D
g|fdec dBAG|FAdf eE2g|fdec dBAG|FdEc d2D::!
G|FADF GBEG|FAdf eE2G|FAdf gedc|dBAG F”cr in MS”DD:||

